build/dist/assets/images/services/service1.svg

<svg width="52" height="52" viewBox="0 0 52 52" fill="none" xmlns="http://www.w3.org/2000/svg">
<path d="M44.2 8.62749H32.0667V7.76474C32.0616 3.47839 28.5725 0.00506865 24.2667 0H7.8C3.49418 0.00506865 0.00509167 3.47839 0 7.76474V18.1177C0.00509167 22.4041 3.49418 25.8774 7.8 25.8825H8.66667V32.7845C8.66667 33.1332 8.87792 33.4479 9.20162 33.5814C9.52532 33.7149 9.8982 33.6408 10.1461 33.3944L17.6921 25.8825H19.9333V26.7452C19.9384 31.0316 23.4275 34.5049 27.7333 34.5099H32.5745L41.8539 43.7474C41.9751 43.868 42.1295 43.9502 42.2976 43.9834C42.4657 44.0167 42.64 43.9996 42.7983 43.9343C42.9566 43.8691 43.092 43.7585 43.1872 43.6167C43.2824 43.4748 43.3333 43.308 43.3333 43.1374V34.5099H44.2C48.5058 34.5049 51.9949 31.0316 52 26.7452V16.3922C51.9949 12.1059 48.5058 8.63256 44.2 8.62749ZM17.3333 24.157C17.1035 24.157 16.8831 24.2479 16.7206 24.4097L10.4 30.7018V25.0197C10.4 24.7909 10.3087 24.5715 10.1462 24.4097C9.98363 24.2479 9.76319 24.157 9.53333 24.157H7.8C4.45098 24.1532 1.73713 21.4516 1.73333 18.1177V7.76474C1.73713 4.43086 4.45098 1.72927 7.8 1.7255H24.2667C27.6157 1.72927 30.3295 4.43086 30.3333 7.76474V8.62749H27.7333C23.4275 8.63256 19.9384 12.1059 19.9333 16.3922V24.157H17.3333ZM50.2667 26.7452C50.2629 30.0791 47.549 32.7807 44.2 32.7845H42.4667C42.2368 32.7845 42.0164 32.8753 41.8538 33.0371C41.6913 33.1989 41.6 33.4184 41.6 33.6472V41.0548L33.5461 33.0372C33.3836 32.8754 33.1632 32.7845 32.9333 32.7845H27.7333C24.3843 32.7807 21.6705 30.0791 21.6667 26.7452V16.3922C21.6705 13.0583 24.3843 10.3568 27.7333 10.353H44.2C47.549 10.3568 50.2629 13.0583 50.2667 16.3922V26.7452Z" fill="#009B97"/>
<path d="M45.1429 15.75H25.4286C25.2012 15.75 24.9832 15.8422 24.8225 16.0063C24.6617 16.1704 24.5714 16.3929 24.5714 16.625C24.5714 16.8571 24.6617 17.0796 24.8225 17.2437C24.9832 17.4078 25.2012 17.5 25.4286 17.5H45.1429C45.3702 17.5 45.5882 17.4078 45.749 17.2437C45.9097 17.0796 46 16.8571 46 16.625C46 16.3929 45.9097 16.1704 45.749 16.0063C45.5882 15.8422 45.3702 15.75 45.1429 15.75ZM45.1429 21H25.4286C25.2012 21 24.9832 21.0922 24.8225 21.2563C24.6617 21.4204 24.5714 21.6429 24.5714 21.875C24.5714 22.1071 24.6617 22.3296 24.8225 22.4937C24.9832 22.6578 25.2012 22.75 25.4286 22.75H45.1429C45.3702 22.75 45.5882 22.6578 45.749 22.4937C45.9097 22.3296 46 22.1071 46 21.875C46 21.6429 45.9097 21.4204 45.749 21.2563C45.5882 21.0922 45.3702 21 45.1429 21ZM45.1429 26.25H25.4286C25.2012 26.25 24.9832 26.3422 24.8225 26.5063C24.6617 26.6704 24.5714 26.8929 24.5714 27.125C24.5714 27.3571 24.6617 27.5796 24.8225 27.7437C24.9832 27.9078 25.2012 28 25.4286 28H45.1429C45.3702 28 45.5882 27.9078 45.749 27.7437C45.9097 27.5796 46 27.3571 46 27.125C46 26.8929 45.9097 26.6704 45.749 26.5063C45.5882 26.3422 45.3702 26.25 45.1429 26.25ZM4.85714 8.75H22.8571C23.0845 8.75 23.3025 8.65781 23.4632 8.49372C23.624 8.32962 23.7143 8.10706 23.7143 7.875C23.7143 7.64294 23.624 7.42038 23.4632 7.25628C23.3025 7.09219 23.0845 7 22.8571 7H4.85714C4.62981 7 4.4118 7.09219 4.25105 7.25628C4.09031 7.42038 4 7.64294 4 7.875C4 8.10706 4.09031 8.32962 4.25105 8.49372C4.4118 8.65781 4.62981 8.75 4.85714 8.75ZM17.7143 12.25H4.85714C4.62981 12.25 4.4118 12.3422 4.25105 12.5063C4.09031 12.6704 4 12.8929 4 13.125C4 13.3571 4.09031 13.5796 4.25105 13.7437C4.4118 13.9078 4.62981 14 4.85714 14H17.7143C17.9416 14 18.1596 13.9078 18.3204 13.7437C18.4811 13.5796 18.5714 13.3571 18.5714 13.125C18.5714 12.8929 18.4811 12.6704 18.3204 12.5063C18.1596 12.3422 17.9416 12.25 17.7143 12.25ZM16.8571 17.5H4.85714C4.62981 17.5 4.4118 17.5922 4.25105 17.7563C4.09031 17.9204 4 18.1429 4 18.375C4 18.6071 4.09031 18.8296 4.25105 18.9937C4.4118 19.1578 4.62981 19.25 4.85714 19.25H16.8571C17.0845 19.25 17.3025 19.1578 17.4632 18.9937C17.624 18.8296 17.7143 18.6071 17.7143 18.375C17.7143 18.1429 17.624 17.9204 17.4632 17.7563C17.3025 17.5922 17.0845 17.5 16.8571 17.5Z" fill="#009B97"/>
</svg>

<svg width="52" height="52" fill="none" xmlns="http://www.w3.org/2000/svg"><path d="M44.2 8.627H32.067v-.862c-.005-4.287-3.494-7.76-7.8-7.765H7.8C3.494.005.005 3.478 0 7.765v10.353c.005 4.286 3.494 7.76 7.8 7.765h.867v6.902c0 .348.21.663.535.796a.87.87 0 00.944-.187l7.546-7.511h2.241v.862c.005 4.287 3.494 7.76 7.8 7.765h4.841l9.28 9.237a.867.867 0 001.48-.61V34.51h.866c4.306-.005 7.795-3.478 7.8-7.765V16.392c-.005-4.286-3.494-7.76-7.8-7.765zm-26.867 15.53a.86.86 0 00-.612.253L10.4 30.702V25.02a.86.86 0 00-.867-.863H7.8c-3.349-.004-6.063-2.705-6.067-6.04V7.766C1.737 4.43 4.451 1.729 7.8 1.725h16.467c3.349.004 6.063 2.706 6.066 6.04v.862h-2.6c-4.306.006-7.795 3.479-7.8 7.765v7.765h-2.6zm32.934 2.588c-.004 3.334-2.718 6.036-6.067 6.04h-1.733a.861.861 0 00-.867.863v7.407l-8.054-8.018a.868.868 0 00-.613-.252h-5.2c-3.349-.004-6.063-2.706-6.066-6.04V16.392c.003-3.334 2.717-6.035 6.066-6.039H44.2c3.349.004 6.063 2.705 6.067 6.04v10.352z" fill="#009B97"/><path d="M45.143 15.75H25.429a.848.848 0 00-.606.256.884.884 0 000 1.238c.16.164.378.256.606.256h19.714a.849.849 0 00.606-.256.884.884 0 000-1.238.849.849 0 00-.606-.256zm0 5.25H25.429a.848.848 0 00-.606.256.884.884 0 000 1.238c.16.164.378.256.606.256h19.714a.849.849 0 00.606-.256.884.884 0 000-1.238.849.849 0 00-.606-.256zm0 5.25H25.429a.848.848 0 00-.606.256.884.884 0 000 1.238c.16.164.378.256.606.256h19.714a.849.849 0 00.606-.256.884.884 0 000-1.238.849.849 0 00-.606-.256zM4.857 8.75h18a.848.848 0 00.606-.256.884.884 0 000-1.238.848.848 0 00-.606-.256h-18a.848.848 0 00-.606.256.884.884 0 000 1.238c.16.164.379.256.606.256zm12.857 3.5H4.857a.848.848 0 00-.606.256.884.884 0 000 1.238c.16.164.379.256.606.256h12.857a.849.849 0 00.606-.256.884.884 0 000-1.238.849.849 0 00-.606-.256zm-.857 5.25h-12a.848.848 0 00-.606.256.884.884 0 000 1.238c.16.164.379.256.606.256h12a.848.848 0 00.606-.256.884.884 0 000-1.238.848.848 0 00-.606-.256z" fill="#009B97"/></svg>
